packages/assets/static/images/icons/boot.svg

<svg width="24" height="24" viewBox="0 0 24 24" xmlns="http://www.w3.org/2000/svg" fill="currentColor" aria-hidden="true"> <path d="M17.25 9.75049H14.625V5.25049C14.625 5.00426 14.5765 4.76044 14.4822 4.53296C14.388 4.30547 14.2499 4.09877 14.0758 3.92466C13.9017 3.75055 13.695 3.61244 13.4675 3.51821C13.24 3.42399 12.9962 3.37549 12.75 3.37549H2.24997C2.06748 3.37554 1.88774 3.41998 1.72626 3.50497C1.56478 3.58997 1.42639 3.71298 1.32305 3.86338C1.2197 4.01379 1.1545 4.18708 1.13306 4.3683C1.11161 4.54952 1.13458 4.73324 1.19997 4.90361C2.21997 7.56518 1.97809 12.2499 1.16903 15.0642C1.13985 15.1654 1.12502 15.2702 1.12497 15.3755V18.7505C1.12497 19.2478 1.32251 19.7247 1.67414 20.0763C2.02577 20.4279 2.50269 20.6255 2.99997 20.6255H5.44778C5.74056 20.6258 6.0294 20.5581 6.29153 20.4277L7.39028 19.8755H8.73466L9.83809 20.4277C10.1002 20.5581 10.3891 20.6258 10.6818 20.6255H13.3275C13.6187 20.6251 13.9058 20.5574 14.1665 20.4277L15.2653 19.8755H16.6097L17.7131 20.4277C17.9738 20.5574 18.261 20.6251 18.5522 20.6255H21C21.4972 20.6255 21.9742 20.4279 22.3258 20.0763C22.6774 19.7247 22.875 19.2478 22.875 18.7505V15.3755C22.8732 13.8842 22.28 12.4544 21.2255 11.3999C20.171 10.3454 18.7413 9.75222 17.25 9.75049ZM3.74997 5.62549H12.375V9.75049H10.125C9.8266 9.75049 9.54045 9.86901 9.32947 10.08C9.1185 10.291 8.99997 10.5771 8.99997 10.8755C8.99997 11.1739 9.1185 11.46 9.32947 11.671C9.54045 11.882 9.8266 12.0005 10.125 12.0005H17.25C17.9477 12.0015 18.628 12.2182 19.1976 12.621C19.7673 13.0239 20.1984 13.593 20.4318 14.2505H3.67591C4.19528 11.633 4.33403 8.28893 3.74997 5.62549ZM20.625 18.3755H18.6403L17.5368 17.8233C17.2761 17.6936 16.989 17.6259 16.6978 17.6255H15.1772C14.886 17.6259 14.5988 17.6936 14.3381 17.8233L13.2347 18.3755H10.7653L9.66184 17.8233C9.39971 17.6929 9.11087 17.6252 8.81809 17.6255H7.30216C7.00938 17.6252 6.72054 17.6929 6.45841 17.8233L5.35966 18.3755H3.37497V16.5005H20.625V18.3755Z"/> </svg>

<svg viewBox="0 0 24 24" xmlns="http://www.w3.org/2000/svg" aria-hidden="true" fill="currentColor"><path d="M17.25 9.75h-2.625v-4.5a1.874 1.874 0 0 0-1.875-1.875H2.25A1.125 1.125 0 0 0 1.2 4.904c1.02 2.661.778 7.346-.031 10.16q-.044.152-.044.312v3.374A1.875 1.875 0 0 0 3 20.626h2.448c.293 0 .581-.067.844-.197l1.098-.553h1.345l1.103.553c.262.13.551.198.844.197h2.646c.29 0 .578-.068.838-.197l1.1-.553h1.344l1.103.553c.26.13.548.197.84.197H21a1.875 1.875 0 0 0 1.875-1.875v-3.374A5.63 5.63 0 0 0 17.25 9.75M3.75 5.625h8.625V9.75h-2.25a1.125 1.125 0 1 0 0 2.25h7.125a3.38 3.38 0 0 1 3.182 2.25H3.676c.52-2.617.658-5.961.074-8.625m16.875 12.75H18.64l-1.103-.552a1.9 1.9 0 0 0-.84-.198h-1.52a1.9 1.9 0 0 0-.839.198l-1.103.552h-2.47l-1.103-.552a1.9 1.9 0 0 0-.844-.198H7.302a1.9 1.9 0 0 0-.844.198l-1.098.552H3.375V16.5h17.25z"/></svg>
